usr/share/icons/biglinux-icons-material/scalable/apps/mate-eiciel.svg

<?xml version="1.0" encoding="UTF-8" standalone="no"?>
<svg
   width="24"
   height="24"
   viewBox="0 0 6.349875 6.349875"
   version="1.1"
   id="svg2"
   sodipodi:docname="mate-eiciel.svg"
   inkscape:version="1.3 (0e150ed6c4, 2023-07-21)"
   xmlns:inkscape="http://www.inkscape.org/namespaces/inkscape"
   xmlns:sodipodi="http://sodipodi.sourceforge.net/DTD/sodipodi-0.dtd"
   xmlns="http://www.w3.org/2000/svg"
   xmlns:svg="http://www.w3.org/2000/svg"
   xmlns:sketch="http://www.bohemiancoding.com/sketch/ns">
  <defs
     id="defs2">
    <radialGradient
       fx="0"
       fy="0"
       cx="0"
       cy="0"
       r="1"
       gradientUnits="userSpaceOnUse"
       gradientTransform="matrix(0,5.8207185,-5.8207185,0,3.1748145,0.26457272)"
       spreadMethod="pad"
       id="radialGradient9652-9">
      <stop
         style="stop-color:#8fdfff;stop-opacity:1;"
         offset="0"
         id="stop9648-1" />
      <stop
         style="stop-color:#26b8ef;stop-opacity:1;"
         offset="1"
         id="stop9650-2" />
    </radialGradient>
  </defs>
  <sodipodi:namedview
     id="namedview2"
     pagecolor="#ffffff"
     bordercolor="#000000"
     borderopacity="0.25"
     inkscape:showpageshadow="2"
     inkscape:pageopacity="0.0"
     inkscape:pagecheckerboard="0"
     inkscape:deskcolor="#d1d1d1"
     inkscape:zoom="2.2400922"
     inkscape:cx="-27.007817"
     inkscape:cy="-20.311664"
     inkscape:window-width="2560"
     inkscape:window-height="998"
     inkscape:window-x="0"
     inkscape:window-y="0"
     inkscape:window-maximized="1"
     inkscape:current-layer="svg2" />
  <path
     d="m 3.1749374,0.26457811 c -2.6457814,0 -2.9103594,1.32289059 -2.9103594,2.91035929 0,2.116625 0.7937345,2.9103592 2.9103594,2.9103592 2.116625,0 2.9103592,-0.7937342 2.9103592,-2.9103592 0,-1.5874687 -0.264578,-2.91035929 -2.9103592,-2.91035929 z"
     sketch:type="MSShapeGroup"
     id="path6"
     style="font-variation-settings:normal;display:inline;vector-effect:none;fill:#00abec;fill-opacity:1;stroke-width:0.295341;stroke-linecap:butt;stroke-linejoin:miter;stroke-miterlimit:4;stroke-dasharray:none;stroke-dashoffset:0;stroke-opacity:1;-inkscape-stroke:none;stop-color:#000000"
     sodipodi:nodetypes="sssss"
     inkscape:label="Shape" />
  <path
     id="path9654"
     style="fill:url(#radialGradient9652-9);fill-rule:evenodd;stroke:none;stroke-width:0.352771"
     d="m 3.1749375,0.52243845 c -2.41126619,0 -2.65249905,1.20573925 -2.65249905,2.65249905 0,1.9290131 0.72348605,2.6524991 2.65249905,2.6524991 1.9290131,0 2.6524991,-0.723486 2.6524991,-2.6524991 0,-1.4467598 -0.2412328,-2.65249905 -2.6524991,-2.65249905 z" />
  <path
     d="M 4.2242917,4.005338 Q 4.099294,4.1936676 3.8705486,4.3469979 3.6418032,4.4978283 3.2647271,4.4978283 q -0.5333223,0 -0.85415,-0.3466598 -0.31791,-0.3466599 -0.31791,-0.8866493 v -0.099165 q 0,-0.4170752 0.1579138,-0.7095694 Q 2.410994,2.1607905 2.6655725,2.0078769 2.9201509,1.8520467 3.2080617,1.8520467 q 0.5470723,0 0.7970677,0.3583262 0.2520785,0.356243 0.2520785,0.8916492 V 3.2978519 H 2.5309917 q 0.00958,0.3512431 0.2074962,0.5987382 0.2004123,0.2449952 0.5499892,0.2449952 0.2308285,0 0.3912423,-0.094165 0.1599969,-0.094165 0.2804108,-0.2520784 z M 3.2076448,2.2103733 q -0.2591616,0 -0.4383246,0.1887463 Q 2.5901571,2.5878659 2.5451579,2.9416089 H 3.8209671 V 2.9082762 Q 3.8043002,2.6541146 3.6726356,2.4320356 3.5426386,2.2103733 3.2080625,2.2103733 Z"
     fill="#ffffff"
     aria-label="e"
     id="path3"
     style="stroke-width:1" />
</svg>

<svg xmlns="http://www.w3.org/2000/svg" width="24" height="24" viewBox="0 0 6.35 6.35"><defs><radialGradient id="a" cx="0" cy="0" r="1" fx="0" fy="0" gradientTransform="rotate(90 1.455 1.72) scale(5.82072)" gradientUnits="userSpaceOnUse" spreadMethod="pad"><stop offset="0" style="stop-color:#8fdfff;stop-opacity:1"/><stop offset="1" style="stop-color:#26b8ef;stop-opacity:1"/></radialGradient></defs><path d="M3.175.265C.529.265.265 1.587.265 3.175c0 2.117.793 2.91 2.91 2.91s2.91-.793 2.91-2.91c0-1.588-.264-2.91-2.91-2.91z" style="font-variation-settings:normal;display:inline;vector-effect:none;fill:#00abec;fill-opacity:1;stroke-width:.295341;stroke-linecap:butt;stroke-linejoin:miter;stroke-miterlimit:4;stroke-dasharray:none;stroke-dashoffset:0;stroke-opacity:1;-inkscape-stroke:none;stop-color:#000"/><path d="M3.175.522C.764.522.522 1.728.522 3.175c0 1.929.724 2.652 2.653 2.652s2.652-.723 2.652-2.652c0-1.447-.24-2.653-2.652-2.653z" style="fill:url(#a);fill-rule:evenodd;stroke:none;stroke-width:.352771"/><path fill="#fff" d="M4.224 4.005q-.125.189-.353.342-.23.15-.606.15-.534 0-.854-.346-.318-.346-.318-.886v-.1q0-.417.158-.71.16-.294.415-.447.254-.156.542-.156.547 0 .797.358.252.357.252.892v.196H2.531q.01.351.207.599.2.245.55.245.231 0 .392-.095.16-.094.28-.252zM3.208 2.21q-.26 0-.439.19-.179.188-.224.542h1.276v-.034q-.017-.254-.148-.476-.13-.222-.465-.222Z" aria-label="e" style="stroke-width:1"/></svg>
